X: 12463
T: Farewell To Chernobyl
R: reel
M: 4/4
K: Dminor
D3F ADFA|DFAF GFED|A,3C EA,CE|A,CEC c=BAF|
D3F ADFA|DFAF FGA=B|c2Gc EcGe|fedc d3c:|
d2fd gdfd|d2fd gfec|d2fd gdfd|e2ef edcA|
d2fd gdfd|d2fd gfeg|a4 afef|e2ef edcA|
d2fd gdfd|d2fd efec|d2fd gdfd|e2ef edcA|
Adfd Adfd|Bdfd Bdfd|cege agfe|fedc dBAF||

